img/logo.svg

<svg width="163" height="35" viewBox="0 0 163 35" fill="none" xmlns="http://www.w3.org/2000/svg">
<g filter="url(#filter0_d)">
<path fill-rule="evenodd" clip-rule="evenodd" d="M-0.151001 0.701993V34.302H13.381C15.5624 34.3553 17.7309 33.954 19.7487 33.1235C21.7665 32.2929 23.5892 31.0514 25.101 29.478C26.6506 27.9007 27.8665 26.0273 28.6761 23.9697C29.4857 21.912 29.8724 19.7124 29.813 17.502C29.8724 15.2916 29.4857 13.092 28.6761 11.0343C27.8665 8.97669 26.6506 7.1033 25.101 5.52599C23.5891 3.9527 21.7663 2.7113 19.7486 1.88079C17.7308 1.05028 15.5623 0.648834 13.381 0.701993H-0.151001ZM7.582 26.91V8.09099H13.382C14.5845 8.04309 15.7838 8.24675 16.903 8.68895C18.0223 9.13115 19.0369 9.80215 19.882 10.659C20.7304 11.5766 21.3875 12.6541 21.8149 13.8285C22.2422 15.0029 22.4313 16.2507 22.371 17.499C22.4313 18.7473 22.2423 19.9951 21.8149 21.1695C21.3876 22.3439 20.7305 23.4214 19.882 24.339C19.0371 25.196 18.0225 25.8672 16.9032 26.3094C15.7839 26.7516 14.5845 26.9551 13.382 26.907H7.582V26.91ZM42.382 20.958H54.464V13.658H42.378V8.09099H55.669V0.701993H34.645V34.302H55.91V26.91H42.378V20.958H42.382ZM78.725 34.302L89.744 0.701993H81.286L73.795 25.422L66.304 0.701993H57.847L68.866 34.302H78.725ZM93.125 34.302H100.858V0.701993H93.125V34.302ZM131.74 32.886C134.233 31.574 136.321 29.6076 137.781 27.198L131.111 23.358C130.381 24.659 129.279 25.7121 127.946 26.382C126.505 27.1262 124.903 27.504 123.282 27.482C121.962 27.5449 120.643 27.3343 119.408 26.8635C118.173 26.3927 117.048 25.6718 116.105 24.746C115.195 23.7791 114.489 22.6393 114.028 21.3942C113.568 20.1492 113.362 18.8242 113.423 17.498C113.362 16.1718 113.568 14.8468 114.028 13.6017C114.489 12.3567 115.195 11.2168 116.105 10.25C117.048 9.32422 118.173 8.60333 119.408 8.13252C120.643 7.6617 121.962 7.45113 123.282 7.51399C124.893 7.49098 126.486 7.86172 127.921 8.59399C129.263 9.2718 130.373 10.3326 131.111 11.642L137.781 7.80199C136.294 5.39746 134.191 3.43378 131.691 2.11399C129.109 0.720899 126.216 0.00268347 123.282 0.0259933C113.503 -0.246007 105.485 7.71699 105.691 17.498C105.483 27.279 113.5 35.245 123.279 34.974C126.229 35.0012 129.138 34.283 131.737 32.886H131.74ZM149.621 20.958H161.703V13.658H149.618V8.09099H162.908V0.701993H141.885V34.302H163.15V26.91H149.618V20.958H149.621Z" fill="black"/>
<path d="M137.077 7.63046C135.658 5.49931 133.727 3.75395 131.458 2.55617L131.454 2.55406C128.945 1.20094 126.136 0.503337 123.286 0.525978L123.277 0.526049L123.268 0.5258C113.775 0.261744 105.991 7.99217 106.191 17.4875L106.191 17.498L106.191 17.5086C105.989 27.004 113.772 34.7373 123.265 34.4742L123.274 34.4739L123.284 34.474C126.15 34.5005 128.976 33.8028 131.5 32.4456L131.611 32.386H131.615C133.83 31.1973 135.708 29.4725 137.081 27.3719L131.286 24.0356C130.516 25.2238 129.443 26.1887 128.173 26.8276C126.664 27.6063 124.988 28.0027 123.29 27.9821C121.907 28.0459 120.524 27.8242 119.23 27.3307C117.93 26.8353 116.747 26.0769 115.755 25.1029L115.748 25.0959L115.741 25.0886C114.785 24.073 114.043 22.8757 113.559 21.5678C113.078 20.2671 112.862 18.8834 112.922 17.498C112.862 16.1126 113.078 14.7289 113.559 13.4282C114.043 12.1203 114.785 10.923 115.741 9.90735L115.748 9.9001L115.755 9.89313C116.747 8.91912 117.93 8.16066 119.23 7.66531C120.524 7.1718 121.906 6.95006 123.29 7.01384C124.977 6.99225 126.644 7.38149 128.147 8.14807M137.077 7.63046L116.105 10.25C117.048 9.32422 118.173 8.60333 119.408 8.13252C120.643 7.6617 121.962 7.45113 123.282 7.51399C124.893 7.49098 126.486 7.86172 127.921 8.59399C129.222 9.25116 130.305 10.2684 131.043 11.5231L130.862 11.2087L131.285 10.9648M137.077 7.63046L131.285 10.9648M128.147 8.14807C128.148 8.14825 128.148 8.14843 128.148 8.14861L127.921 8.59322L128.146 8.14771C128.147 8.14783 128.147 8.14795 128.147 8.14807ZM128.147 8.14807C129.426 8.79449 130.508 9.76759 131.285 10.9648M131.285 10.9648C131.376 11.1044 131.462 11.247 131.544 11.3925M13.3932 33.8021L13.3932 33.802H13.381H0.348999V1.20199H13.381V1.20214L13.3932 1.20184C15.5051 1.15038 17.6047 1.53906 19.5583 2.34316C21.5119 3.14726 23.2767 4.34917 24.7405 5.87244L24.7405 5.87246L24.7443 5.8764C26.2469 7.40579 27.4259 9.22227 28.2108 11.2174C28.9958 13.2125 29.3707 15.3454 29.3132 17.4886L29.3128 17.502L29.3132 17.5154C29.3707 19.6586 28.9958 21.7915 28.2108 23.7866C27.4259 25.7817 26.2469 27.5982 24.7443 29.1276L24.7443 29.1276L24.7404 29.1316C23.2768 30.655 21.512 31.857 19.5584 32.6611C17.6048 33.4652 15.5052 33.8538 13.3932 33.8021ZM7.582 7.59099H7.082V8.09099V26.407V26.907V26.91H7.582V27.407H13.3721C14.6408 27.4564 15.906 27.241 17.0869 26.7744C18.271 26.3066 19.3443 25.5967 20.2381 24.69L20.2437 24.6843L20.2491 24.6785C21.1427 23.7121 21.8347 22.5773 22.2848 21.3405C22.7321 20.1112 22.9315 18.8056 22.8716 17.499C22.9315 16.1924 22.732 14.8868 22.2847 13.6575C21.8347 12.4207 21.1426 11.2859 20.2491 10.3196L20.2437 10.3136L20.238 10.3079C19.3441 9.4015 18.2708 8.6917 17.0868 8.22393C15.9059 7.75739 14.6408 7.54186 13.3722 7.59099H7.582ZM41.878 13.658V14.158H42.378H53.964V20.458H42.382H42.378H41.878V20.958V26.91V27.41H42.378H55.41V33.802H35.145V1.20199H55.169V7.59099H42.378H41.878V8.09099V13.658ZM58.5372 1.20199H65.9331L73.3165 25.567L73.795 27.1461L74.2735 25.567L81.6569 1.20199H89.0538L78.3628 33.802H69.2282L58.5372 1.20199Z" stroke="black"/>
</g>
<defs>
<filter id="filter0_d" x="-4.151" y="0.0192261" width="171.301" height="42.9615" filterUnits="userSpaceOnUse" color-interpolation-filters="sRGB">
<feFlood flood-opacity="0" result="BackgroundImageFix"/>
<feColorMatrix in="SourceAlpha" type="matrix" values="0 0 0 0 0 0 0 0 0 0 0 0 0 0 0 0 0 0 127 0"/>
<feOffset dy="4"/>
<feGaussianBlur stdDeviation="2"/>
<feColorMatrix type="matrix" values="0 0 0 0 0 0 0 0 0 0 0 0 0 0 0 0 0 0 0.25 0"/>
<feBlend mode="normal" in2="BackgroundImageFix" result="effect1_dropShadow"/>
<feBlend mode="normal" in="SourceGraphic" in2="effect1_dropShadow" result="shape"/>
</filter>
</defs>
</svg>

<svg width="163" height="35" fill="none" xmlns="http://www.w3.org/2000/svg"><g filter="url(#filter0_d)"><path fill-rule="evenodd" clip-rule="evenodd" d="M-.151.702v33.6h13.532a15.721 15.721 0 0011.72-4.824 16.459 16.459 0 004.712-11.976 16.457 16.457 0 00-4.712-11.976A15.724 15.724 0 0013.381.702H-.151zM7.582 26.91V8.091h5.8a8.646 8.646 0 016.5 2.568 9.408 9.408 0 012.489 6.84 9.406 9.406 0 01-2.489 6.84 8.642 8.642 0 01-6.5 2.568h-5.8v.003zm34.8-5.952h12.082v-7.3H42.378V8.091h13.291V.702H34.645v33.6H55.91V26.91H42.378v-5.952h.004zm36.343 13.344L89.744.702h-8.458l-7.491 24.72L66.304.702h-8.457l11.019 33.6h9.859zm14.4 0h7.733V.702h-7.733v33.6zm38.615-1.416a15.508 15.508 0 006.041-5.688l-6.67-3.84a7.481 7.481 0 01-3.165 3.024 9.873 9.873 0 01-4.664 1.1 9.594 9.594 0 01-7.177-2.736 9.911 9.911 0 01-2.682-7.248 9.91 9.91 0 012.682-7.248 9.593 9.593 0 017.177-2.736 9.897 9.897 0 014.639 1.08 7.589 7.589 0 013.19 3.048l6.67-3.84a15.874 15.874 0 00-6.09-5.688 17.42 17.42 0 00-8.409-2.088c-9.779-.272-17.797 7.691-17.591 17.472-.208 9.781 7.809 17.747 17.588 17.476 2.95.027 5.859-.691 8.458-2.088h.003zm17.881-11.928h12.082v-7.3h-12.085V8.091h13.29V.702h-21.023v33.6h21.265V26.91h-13.532v-5.952h.003z" fill="#000"/><path d="M137.077 7.63a15.372 15.372 0 00-5.619-5.074l-.004-.002a16.923 16.923 0 00-8.168-2.028h-.018c-9.493-.264-17.277 7.466-17.077 16.962v.02c-.202 9.496 7.581 17.23 17.074 16.966h.019a17.016 17.016 0 008.216-2.028l.111-.06h.004a15.009 15.009 0 005.466-5.014l-5.795-3.336a7.987 7.987 0 01-3.113 2.792 10.372 10.372 0 01-4.883 1.154 10.092 10.092 0 01-7.535-2.88l-.007-.006-.007-.007a10.405 10.405 0 01-2.819-7.591 10.406 10.406 0 012.819-7.59l.007-.008.007-.007a10.085 10.085 0 017.535-2.88 10.397 10.397 0 014.857 1.135m8.93-.518l-20.972 2.62a9.593 9.593 0 017.177-2.736 9.897 9.897 0 014.639 1.08 7.595 7.595 0 013.122 2.93l-.181-.315.423-.244m5.792-3.335l-5.792 3.335m-3.138-2.817h.001l-.227.445.225-.445h.001zm0 0a8.093 8.093 0 013.138 2.817m0 0c.091.14.177.282.259.428m-118.15 22.41v-.001H.348v-32.6h13.032v0h.012a15.223 15.223 0 0111.348 4.67h0l.003.004a15.956 15.956 0 014.57 11.613l-.001.013v.013a15.959 15.959 0 01-4.569 11.613h0l-.004.004a15.219 15.219 0 01-11.347 4.67zM7.581 7.59h-.5V26.91h.5v.497h5.79a9.141 9.141 0 006.866-2.717l.006-.006.005-.006a9.907 9.907 0 002.623-7.179 9.908 9.908 0 00-2.623-7.18l-.005-.005-.006-.006a9.146 9.146 0 00-6.866-2.717h-5.79zm34.296 6.067v.5h12.086v6.3H41.878v6.952H55.41v6.392H35.145v-32.6h20.024v6.389H41.878v6.067zm16.66-12.456h7.395l7.383 24.365.479 1.58.478-1.58 7.384-24.365h7.397l-10.691 32.6h-9.135l-10.69-32.6z" stroke="#000"/></g><defs><filter id="filter0_d" x="-4.151" y=".019" width="171.301" height="42.962" filterUnits="userSpaceOnUse" color-interpolation-filters="sRGB"><feFlood flood-opacity="0" result="BackgroundImageFix"/><feColorMatrix in="SourceAlpha" values="0 0 0 0 0 0 0 0 0 0 0 0 0 0 0 0 0 0 127 0"/><feOffset dy="4"/><feGaussianBlur stdDeviation="2"/><feColorMatrix values="0 0 0 0 0 0 0 0 0 0 0 0 0 0 0 0 0 0 0.25 0"/><feBlend in2="BackgroundImageFix" result="effect1_dropShadow"/><feBlend in="SourceGraphic" in2="effect1_dropShadow" result="shape"/></filter></defs></svg>
